X:1
T:Be of Good Cheer
T:Frank Marion Davis
T:Be of Good Cheer
T:Public Domain
T:Public Domain
C:Frank Marion Davis
Z:Public Domain
%%score ( 1 2 ) ( 3 4 )
L:1/8
M:6/8
K:A
V:1 treble 
V:2 treble 
V:3 bass 
V:4 bass 
V:1
 [CA][CA][CA] [CA][EG][DF] | [CE]3 [CA]2 [EA] | [EB]2 [EB] [EB][EA][EB] | [Ec]3- [Ec]2 z | %4
w: 1.~“Be of good cheer,” saith the|Sav- ior, “Tho’|all thy bright- est hopes|fade; *|
w: 2.~“Be of good cheer, tho’ the|temp- ter And|world are ’gainst thee ar-|rayed; *|
w: 3.~“Be of good cheer thro’ thy|tri- als; On|Me let bur- dens be|laid; *|
 [Ec][Ec][Ec] [Ec][EB][EA] | [FA]3 [DF]2 [DF]/[DF]/ | [CE]2 [CA] [DG][DF][DG] | [CA]3- [CA]2 || %8
w: I will be near to sus-|tain thee; It is|I, O be not a-|fraid.” *|
w: I will give grace that will|con- quer; It is|I, O be not a-|fraid.” *|
w: Tho’ they be hea- vy, I’ll|bear them; It is|I, O be not a-|fraid.” *|
"^Refrain" A/A/ | (z2 E/E/ [EB]2) B/B/ | z2 E/E/ [Ec]2 [Ec]/[Ec]/ | [A^d]2 [Ad] [Ad][Ac][Ad] | %12
w: It is|* * * I, it|* * * I, It|* I, O be not|
w: ||||
w: ||||
 [Ge]3- [Ge]2 z | [Ae][Ed][Ec] [Ec][EB][EA] | [FA]3 [DF]2 [DF]/[DF]/ | [CE]2 [CA] [DG][DF][DG] | %16
w: a- *|fraid! “Be of good cheer,” saith|the Sav- ior; “It|is I, O be not|
w: ||||
w: ||||
 [CA]3- [CA]2 z |] %17
w: a- *|
w: |
w: |
V:2
 x6 | x6 | x6 | x6 | x6 | x6 | x6 | x5 || x | B3- x3 | c3- x3 | x6 | x6 | x6 | x6 | x6 | x6 |] %17
w: |||||||||is|is|||||||
V:3
 [A,,E,][A,,E,][A,,E,] [A,,E,][A,,E,][A,,A,] | [A,,A,]3 [A,,A,]2 [C,A,] | %2
w: ~ ~ ~ ~ ~ ~|~ ~ ~|
 [E,G,]2 [E,G,] [E,G,][E,F,][E,G,] | A,3- A,2 z | [A,,A,][A,,A,][A,,A,] [A,,A,][B,,G,][C,A,] | %5
w: ~ ~ ~ ~ ~|~ *|~ ~ ~ ~ ~ ~|
 [D,D]3 [D,A,]2 [D,A,]/[D,A,]/ | [E,A,]2 E, E,E,E, | [A,,E,]3- [A,,E,]2 || z | %9
w: ~ ~ ~ ~|~ ~ ~ ~ ~|is *||
 z2 [E,G,]/[E,G,]/ [E,G,]2 z | z2 A,/A,/ A,2 A,/A,/ | [F,B,]2 [F,B,] [B,,B,][B,,B,][B,,B,] | %12
w: I, * *|||
 [E,-B,]3 [E,D]2 z | [A,C][A,B,]A, [A,,A,][B,,G,][C,A,] | [D,D]3 [D,A,]2 [D,A,]/[D,A,]/ | %15
w: |||
 [E,A,]2 E, E,E,E, | [A,,E,]3- [A,,E,]2 z |] %17
w: ||
V:4
 x6 | x6 | x6 | A,3- A,2 x | x6 | x6 | x2 E, E,E,E, | x5 || x | x6 | x2 A,/A,/ A,2 A,/A,/ | x6 | %12
w: |||~ *|||It is I, it||||||
 x6 | x2 A, x3 | x6 | x2 E, E,E,E, | x6 |] %17
w: |||||

